X:1
T:Hopser-Polka
C:traditionell
R:Polka
A:Deutschland
%%textfont Helvetica-Narrow 10pt
%%begintext align
B:"Das kleine dicke Liederbuch", Heide Buhmann, Hanspeter Haeseler, 5.Auflage, Eigenverlag, Schluechtern 1989
N:im buch in C (1.teil) und F (2.teil), einstimmig mit harmonie-buchstaben
%%endtext
Z:abc transcription Simon Wascher
M:2/4
L:1/16
K:C
G2[e2c2] [e4g4] | G2[f2d2] [f4d4] | B2[b2g2] [b2g2][a2f2] | [a2f2][g2e2] [g4e4] |
E2A2 G2C2 | B, 2[A2F2] [G4F4] | F2B2 A2F2 | E2A2 G4 |
G2[e2c2] [e4g4] | G2[f2d2] [f4d4] | B2[b2g2] [b2g2][a2f2] | [a2f2][g2e2] [g4e4] |
G2e2 edcB | A2f2 fedc | B2a2 g3B | c2c2 c4 ||\
K:F
c2F2 F4 | E2[B2G2] [B4G4] | G2F2 E2D2 | C2[A2F2] [A4F4] |
c2F2 F4 | E2[B2G2] [B4G4] | C2D2 E2C2 | [f2A2][f2A2] [f4A4] |]
%%wordsfont Times-Italic 11pt
W:aus Simon Waschers TradArchiv
